src/assets/images/logo-optimized.svg

<svg xmlns="http://www.w3.org/2000/svg" xmlns:xlink="http://www.w3.org/1999/xlink" xmlns:sketch="http://www.bohemiancoding.com/sketch/ns" width="100px" height="100px" viewBox="0 0 219 219" version="1.1"><style>.style0{fill:	none;fill-rule:	evenodd;}.style1{fill:	#FFF;}</style><!-- Generator: Sketch 3.0.4 (8053) - http://www.bohemiancoding.com/sketch --><title>caplan_logo 2</title><desc>Created with Sketch.</desc><defs/><g sketch:type="MSPage" class="style0"><path d="M109.461382 219 C170.010649 219 219.1 169.9 219.1 109.4 C219.095528 48.8 170 -0.3 109.5 -0.3 C48.912115 -0.3 -0.2 48.8 -0.2 109.4 C-0.172764228 169.9 48.9 219 109.5 219 L109.461382 219 L109.461382 219 Z M109.461382 96.6 C135.699398 96.6 157 75.3 157 49.1 C156.969512 22.8 135.7 1.6 109.5 1.6 C83.2233664 1.6 62 22.8 62 49.1 C61.953252 75.3 83.2 96.6 109.5 96.6 L109.461382 96.6 L109.461382 96.6 Z M61.5024927 208.1 C63.1426373 196.6 62.9 183 61.5 168.7 C59.9750449 153 59.2 130.6 57.1 126.7 C54.9508133 122.9 38.1 102.1 30.5 88.1 C22.932572 74.1 23.7 56.3 23.7 51 C23.6535355 40 30.1 34.4 38.1 34.4 C46.2184971 34.4 50.9 41.4 52.8 49.1 C54.2195471 55.2 56.2 68.3 66 80.5 C76.1024947 92.9 93.4 102.1 108.5 102.1 C123.392323 102.1 138.6 94.4 148.6 84.9 C158.60765 75.3 163.4 63.9 164.2 49.1 C164.22453 41 170.8 34.4 178.8 34.4 C186.915652 34.4 193.5 41 193.5 49.1 C193.460302 49.7 193.4 50.4 193.3 51 C192.74403 61.9 189.7 76.7 185.4 86.2 C183.266883 90.8 177.2 101.9 172.6 109.4 C166.445097 119.9 161.7 127.1 160.7 132.2 C159.489062 138.4 157.7 153.3 158 170 C158.263846 182.2 160.6 195.2 160.7 206.5 C144.851002 213.7 130.9 219 110.3 219 C90.6936454 219 72.5 213.6 61.5 208.1 Z M105.674137 218.7 C105.674137 218.7 104.3 210.9 105.5 207.5 C106.605897 204.2 109.2 204 110.2 204 C111.304315 204 114.4 202.4 115.2 207.5 C116 212.6 116 218.1 116 218.7 C116 219.3 105.7 218.7 105.7 218.7 Z" sketch:type="MSShapeGroup" class="style1"/></g></svg>

<svg xmlns="http://www.w3.org/2000/svg" width="100" height="100"
  viewBox="0 0 219 219">
  <path
    d="M109.461 219c60.55 0 109.639-49.1 109.639-109.6C219.096 48.8 170-.3 109.5-.3 48.912-.3-.2 48.8-.2 109.4-.173 169.9 48.9 219 109.5 219h-.039zm0-122.4C135.7 96.6 157 75.3 157 49.1c-.03-26.3-21.3-47.5-47.5-47.5C83.223 1.6 62 22.8 62 49.1c-.047 26.2 21.2 47.5 47.5 47.5h-.039zM61.502 208.1c1.64-11.5 1.398-25.1-.002-39.4-1.525-15.7-2.3-38.1-4.4-42-2.15-3.8-19-24.6-26.6-38.6-7.567-14-6.8-31.8-6.8-37.1-.046-11 6.4-16.6 14.4-16.6 8.118 0 12.8 7 14.7 14.7 1.42 6.1 3.4 19.2 13.2 31.4 10.102 12.4 27.4 21.6 42.5 21.6 14.892 0 30.1-7.7 40.1-17.2 10.008-9.6 14.8-21 15.6-35.8.025-8.1 6.6-14.7 14.6-14.7 8.116 0 14.7 6.6 14.7 14.7-.04.6-.1 1.3-.2 1.9-.556 10.9-3.6 25.7-7.9 35.2-2.133 4.6-8.2 15.7-12.8 23.2-6.155 10.5-10.9 17.7-11.9 22.8-1.21 6.2-3 21.1-2.7 37.8.264 12.2 2.6 25.2 2.7 36.5-15.849 7.2-29.8 12.5-50.4 12.5-19.606 0-37.8-5.4-48.8-10.9zm44.172 10.6s-1.374-7.8-.174-11.2c1.106-3.3 3.7-3.5 4.7-3.5 1.104 0 4.2-1.6 5 3.5.8 5.1.8 10.6.8 11.2 0 .6-10.3 0-10.3 0z"
    fill="#fff" fill-rule="evenodd" />
</svg>
